48x48/apps/mail.ru-cloud.svg

<svg xmlns="http://www.w3.org/2000/svg" width="48" height="48" version="1">
 <path style="opacity:0.2" d="m 24.996094,10 c -2.554149,0.002 -4.955967,0.894387 -6.972656,2.351562 C 17.353853,12.21048 16.698348,12.000853 16.005859,12 h -0.002 H 16 C 10.737147,12 6.433638,16.239126 6.1171875,21.431641 4.186459,23.448679 3.0005065,26.124038 3,29 c 0,6.015909 4.9840909,11 11,11 1.705903,-1.4e-4 3.356885,-0.420037 4.853516,-1.158203 1.619187,0.706314 3.340877,1.155036 5.136718,1.158203 H 24 24.0098 c 1.583532,-0.0033 3.109608,-0.375657 4.572265,-0.933594 1.403066,0.562285 2.87656,0.930647 4.408203,0.933594 h 0.0059 H 33 C 39.568194,40 45,34.568194 45,28 45,22.35733 40.913411,17.776973 35.619141,16.535156 33.605072,12.651739 29.573315,10.005497 25.005859,10 h -0.0039 z"/>
 <path style="fill:#1da6e8" d="M 24.996094,9 C 22.441945,9.00195 20.040127,9.8943871 18.023438,11.351562 17.353853,11.21048 16.698348,11.000853 16.005859,11 h -0.002 H 16 C 10.737147,11 6.433638,15.239126 6.1171875,20.431641 4.186459,22.448679 3.0005065,25.124038 3,28 c 0,6.015909 4.9840909,11 11,11 1.705903,-1.4e-4 3.356885,-0.420037 4.853516,-1.158203 1.619187,0.706314 3.340877,1.155036 5.136718,1.158203 H 24 24.0098 c 1.583532,-0.0033 3.109608,-0.375657 4.572265,-0.933594 1.403066,0.562285 2.87656,0.930647 4.408203,0.933594 h 0.0059 H 33 C 39.568194,39 45,33.568194 45,27 45,21.35733 40.913411,16.776973 35.619141,15.535156 33.605072,11.651739 29.573315,9.0054965 25.005859,9 h -0.0039 z"/>
 <circle style="opacity:0.2" cx="14" cy="29" r="6"/>
 <circle style="fill:#ffe174" cx="14" cy="28" r="6"/>
 <circle style="opacity:0.2" cx="16" cy="22" r="5"/>
 <circle style="fill:#ffd338" cx="16" cy="21" r="5"/>
 <circle style="opacity:0.2" cx="25" cy="22" r="7"/>
 <circle style="fill:#ffb822" cx="25" cy="21" r="7"/>
 <circle style="opacity:0.2" cx="33" cy="28" r="7"/>
 <circle style="fill:#ff7c2d" cx="33" cy="27" r="7"/>
 <circle style="opacity:0.2" cx="24" cy="27" r="8"/>
 <circle style="fill:#ff972d" cx="24" cy="26" r="8"/>
 <path style="opacity:0.2;fill:#f4f4f7" d="M 24.996094 9 C 22.441945 9.00195 20.040127 9.8943876 18.023438 11.351562 C 17.353853 11.210481 16.698348 11.000853 16.005859 11 L 16.003906 11 L 16 11 C 10.737147 11 6.433638 15.239126 6.1171875 20.431641 C 4.186459 22.448679 3.0005065 25.124038 3 28 C 3 28.169229 3.0175907 28.334445 3.0253906 28.501953 C 3.154564 25.817059 4.298966 23.331142 6.1171875 21.431641 C 6.433638 16.239126 10.737147 12 16 12 L 16.003906 12 L 16.005859 12 C 16.698348 12.000853 17.353853 12.210481 18.023438 12.351562 C 20.040127 10.894387 22.441945 10.002 24.996094 10 L 25.001953 10 L 25.005859 10 C 29.573315 10.005497 33.605072 12.651739 35.619141 16.535156 C 40.74457 17.73737 44.727057 22.071916 44.976562 27.466797 C 44.982748 27.310688 45 27.157474 45 27 C 45 21.35733 40.913411 16.776973 35.619141 15.535156 C 33.605072 11.651739 29.573315 9.0054965 25.005859 9 L 25.001953 9 L 24.996094 9 z"/>
</svg>

<svg xmlns="http://www.w3.org/2000/svg" width="48" height="48" version="1"><path style="opacity:.2" d="M24.996 10c-2.554.002-4.956.894-6.973 2.352-.67-.142-1.325-.351-2.017-.352H16c-5.263 0-9.566 4.24-9.883 9.432C4.187 23.449 3.001 26.124 3 29c0 6.016 4.984 11 11 11 1.706 0 3.357-.42 4.854-1.158 1.619.706 3.34 1.155 5.136 1.158h.02c1.583-.003 3.11-.376 4.572-.934 1.403.563 2.877.931 4.408.934H33c6.568 0 12-5.432 12-12 0-5.643-4.087-10.223-9.38-11.465-2.015-3.883-6.047-6.53-10.614-6.535h-.004z"/><path style="fill:#1da6e8" d="M24.996 9c-2.554.002-4.956.894-6.973 2.352-.67-.142-1.325-.351-2.017-.352H16c-5.263 0-9.566 4.24-9.883 9.432C4.187 22.449 3.001 25.124 3 28c0 6.016 4.984 11 11 11 1.706 0 3.357-.42 4.854-1.158 1.619.706 3.34 1.155 5.136 1.158h.02c1.583-.003 3.11-.376 4.572-.934 1.403.563 2.877.931 4.408.934H33c6.568 0 12-5.432 12-12 0-5.643-4.087-10.223-9.38-11.465-2.015-3.883-6.047-6.53-10.614-6.535h-.004z"/><circle style="opacity:.2" cx="14" cy="29" r="6"/><circle style="fill:#ffe174" cx="14" cy="28" r="6"/><circle style="opacity:.2" cx="16" cy="22" r="5"/><circle style="fill:#ffd338" cx="16" cy="21" r="5"/><circle style="opacity:.2" cx="25" cy="22" r="7"/><circle style="fill:#ffb822" cx="25" cy="21" r="7"/><circle style="opacity:.2" cx="33" cy="28" r="7"/><circle style="fill:#ff7c2d" cx="33" cy="27" r="7"/><circle style="opacity:.2" cx="24" cy="27" r="8"/><circle style="fill:#ff972d" cx="24" cy="26" r="8"/><path style="opacity:.2;fill:#f4f4f7" d="M24.996 9c-2.554.002-4.956.894-6.973 2.352-.67-.142-1.325-.351-2.017-.352H16c-5.263 0-9.566 4.24-9.883 9.432C4.187 22.449 3.001 25.124 3 28c0 .17.018.334.025.502.13-2.685 1.274-5.17 3.092-7.07C6.434 16.239 10.737 12 16 12h.006c.692 0 1.348.21 2.017.352 2.017-1.458 4.419-2.35 6.973-2.352h.01c4.567.005 8.6 2.652 10.613 6.535 5.126 1.202 9.108 5.537 9.358 10.932.006-.156.023-.31.023-.467 0-5.643-4.087-10.223-9.38-11.465-2.015-3.883-6.047-6.53-10.614-6.535h-.01z"/></svg>
